gd/trunk/website/tcdocs/i/reskin/nav/book-tutorials.svg

<?xml version="1.0" encoding="UTF-8" standalone="no"?>
<svg width="32px" height="32px" viewBox="0 0 32 32" version="1.1" xmlns="http://www.w3.org/2000/svg" xmlns:xlink="http://www.w3.org/1999/xlink" xmlns:sketch="http://www.bohemiancoding.com/sketch/ns">
    <!-- Generator: Sketch 3.3.3 (12081) - http://www.bohemiancoding.com/sketch -->
    <title>nav/book-tutorials</title>
    <desc>Created with Sketch.</desc>
    <defs></defs>
    <g id="Page-1" stroke="none" stroke-width="1" fill="none" fill-rule="evenodd" sketch:type="MSPage">
        <g id="nav/book-tutorials" sketch:type="MSArtboardGroup" stroke="#F6F6F6" stroke-width="1.2" stroke-linecap="round" stroke-linejoin="round">
            <path d="M24.5977021,1 L8.01253961,1 C6.86712643,1 5.93939394,1.92773249 5.93939394,3.07314567 L5.93939394,24.84117 C5.93939394,23.6957576 6.86712643,22.7680215 8.01253961,22.7680215 L24.5977021,22.7680215 C25.7431145,22.7680215 26.6708506,21.8402948 26.6708506,20.6948824 L26.6708506,3.07314567 C26.6708506,1.92773249 25.7431145,1 24.5977021,1 L24.5977021,1 L24.5977021,1 Z" id="Stroke-117" sketch:type="MSShapeGroup"></path>
            <path d="M15.2684532,26.9142997 L24.5976082,26.9142997 C25.7430206,26.9142997 26.6707567,25.9865665 26.6707567,24.841154 L26.6707567,22.7680093 L26.6707567,20.6948636 C26.6707567,21.8402761 25.7430206,22.7680093 24.5976082,22.7680093 L8.01244567,22.7680093 C6.86806911,22.7680093 5.9393,23.6957416 5.9393,24.841154 C5.9393,25.9865665 6.86806911,26.9142997 8.01244567,26.9142997 L9.04901803,26.9142997" id="Stroke-119" sketch:type="MSShapeGroup"></path>
            <path d="M15.2685058,31.0606446 L12.1587877,28.9874998 L9.0490697,31.0606446 L9.0490697,25.8777818 L15.2685058,25.8777818 L15.2685058,31.0606446 L15.2685058,31.0606446 Z" id="Stroke-121" sketch:type="MSShapeGroup"></path>
            <path d="M12.1588366,10.3291212 L10.0856909,12.4022669 L12.1588366,14.4754116" id="Stroke-123" sketch:type="MSShapeGroup"></path>
            <path d="M20.4514333,10.3291212 L22.524579,12.4022669 L20.4514333,14.4754116" id="Stroke-125" sketch:type="MSShapeGroup"></path>
            <path d="M14.2319879,16.5485535 L18.3782783,8.25597273" id="Stroke-127" sketch:type="MSShapeGroup"></path>
        </g>
    </g>
</svg>

<svg xmlns="http://www.w3.org/2000/svg" width="32" height="32" viewBox="0 0 32 32"><g fill="none" fill-rule="evenodd" stroke="#FFF" stroke-width="2" stroke-linecap="round" stroke-linejoin="round"><path d="M24.598 1H8.013a2.073 2.073 0 0 0-2.074 2.073v21.768c0-1.145.928-2.073 2.074-2.073h16.585a2.073 2.073 0 0 0 2.073-2.073V3.073A2.073 2.073 0 0 0 24.598 1z"/><path d="M15.268 26.914h9.33a2.073 2.073 0 0 0 2.073-2.073v-4.146a2.073 2.073 0 0 1-2.073 2.073H8.012a2.073 2.073 0 0 0 0 4.146H9.05"/><path d="M15.269 31.061l-3.11-2.074-3.11 2.074v-5.183h6.22zM12.159 10.329l-2.073 2.073 2.073 2.073M20.451 10.329l2.074 2.073-2.074 2.073M14.232 16.549l4.146-8.293"/></g></svg>
